icons/1_Primary/Unraid.svg

<svg xmlns="http://www.w3.org/2000/svg" width="1024" height="1024" fill="none">
   <g clip-path="url(#a)">
      <path fill="#FF837D" d="M512 1024c282.77 0 512-229.23 512-512S794.77 0 512 0 0 229.23 0 512s229.23 512 512 512Z"/>
      <path fill="#fff" d="M498 429.92h27.64v163.73H498V429.92ZM256 593.65h-27.65V429.92H256v163.73Zm107.17 19.56h27.63v62.51h-27.64l.01-62.51ZM295.54 543h27.64v101.26h-27.64V543Zm134.81 0H458v101.26h-27.65V543ZM768 429.92h27.64v163.73H768V429.92Zm-107.16-19.13H633.2v-62.52h27.64v62.52Zm67.62 69.74h-27.64V379.74h27.64v100.79Zm-135.23 0h-27.65V379.74h27.64l.01 100.79Z"/>
   </g>
   <defs>
      <clipPath id="a">
         <path fill="#fff" d="M0 0h1024v1024H0z"/>
      </clipPath>
   </defs>
</svg>

<svg width="1024" height="1024" viewBox="0 0 1024 1024" fill="none" xmlns="http://www.w3.org/2000/svg">
<g clip-path="url(#clip0_2_3792)">
<path d="M512 1024C794.77 1024 1024 794.77 1024 512C1024 229.23 794.77 0 512 0C229.23 0 0 229.23 0 512C0 794.77 229.23 1024 512 1024Z" fill="#FF837D"/>
<path d="M498 429.92H525.64V593.65H498V429.92ZM256 593.65H228.35V429.92H256V593.65ZM363.17 613.21H390.8V675.72H363.16L363.17 613.21ZM295.54 543H323.18V644.26H295.54V543ZM430.35 543H458V644.26H430.35V543ZM768 429.92H795.64V593.65H768V429.92ZM660.84 410.79H633.2V348.27H660.84V410.79ZM728.46 480.53H700.82V379.74H728.46V480.53ZM593.23 480.53H565.58V379.74H593.22L593.23 480.53Z" fill="white"/>
</g>
<defs>
<clipPath id="clip0_2_3792">
<rect width="1024" height="1024" fill="white"/>
</clipPath>
</defs>
</svg>
